assets/img/icons_pokemon/flying.svg

<svg width="256" height="256" viewBox="0 0 256 256" fill="none" xmlns="http://www.w3.org/2000/svg">
<g clip-path="url(#clip0_57_739)">
<path d="M128 256C198.692 256 256 198.692 256 128C256 57.3075 198.692 0 128 0C57.3075 0 0 57.3075 0 128C0 198.692 57.3075 256 128 256Z" fill="#74AAD0"/>
<path d="M151.78 148.43C136.06 167.09 115.06 166.97 94.9598 168.92C94.0798 169.01 93.2398 169.38 92.5998 170.01C82.3298 180.1 76.7598 194.14 64.5998 203.65C64.0498 204.08 63.2098 203.85 62.9698 203.2C60.7198 197.11 61.3998 191.8 62.1598 186.81C66.4198 158.79 73.2898 131.41 84.0398 105.15C89.8698 90.9199 99.1698 80.6399 115.63 77.9499C139.99 73.9699 162.96 64.9199 186.21 56.9799C189.17 55.9699 192.26 55.0199 195.34 56.2199C196.31 56.5999 197.08 57.3999 197.36 58.3999C198.27 61.6499 196.44 64.2899 194.82 67.0799C181.32 90.4399 160.57 104.59 135.9 113.89C132.36 115.22 128 116.7 124.99 119.5C124.67 119.8 124.91 120.36 125.34 120.38C142.82 121.12 158.1 114.68 174.16 111.14C174.71 111.02 175.2 111.59 175 112.12C167.95 130.06 151.21 139.11 135.1 144.27C128.8 146.29 125.75 146.73 114.77 147.73C114.4 147.76 114.36 148.22 114.66 148.3C130.53 152.3 136.44 147.75 151 146.75C151.83 146.69 152.3 147.77 151.77 148.41L151.78 148.43Z" fill="white"/>
</g>
<defs>
<clipPath id="clip0_57_739">
<rect width="256" height="256" fill="white"/>
</clipPath>
</defs>
</svg>

<?xml version="1.0" encoding="UTF-8"?>
<svg id="Layer_1" data-name="Layer 1" xmlns="http://www.w3.org/2000/svg" viewBox="0 0 256 256">
  <defs>
    <style>
      .cls-1 {
        fill: #fff;
      }

      .cls-2 {
        fill: #74aad0;
      }
    </style>
  </defs>
  <circle class="cls-2" cx="128" cy="128" r="128"/>
  <path class="cls-1" d="M151.78,148.43c-15.72,18.66-36.72,18.54-56.82,20.49-.88,.09-1.72,.46-2.36,1.09-10.27,10.09-15.84,24.13-28,33.64-.55,.43-1.39,.2-1.63-.45-2.25-6.09-1.57-11.4-.81-16.39,4.26-28.02,11.13-55.4,21.88-81.66,5.83-14.23,15.13-24.51,31.59-27.2,24.36-3.98,47.33-13.03,70.58-20.97,2.96-1.01,6.05-1.96,9.13-.76,.97,.38,1.74,1.18,2.02,2.18,.91,3.25-.92,5.89-2.54,8.68-13.5,23.36-34.25,37.51-58.92,46.81-3.54,1.33-7.9,2.81-10.91,5.61-.32,.3-.08,.86,.35,.88,17.48,.74,32.76-5.7,48.82-9.24,.55-.12,1.04,.45,.84,.98-7.05,17.94-23.79,26.99-39.9,32.15-6.3,2.02-9.35,2.46-20.33,3.46-.37,.03-.41,.49-.11,.57,15.87,4,21.78-.55,36.34-1.55,.83-.06,1.3,1.02,.77,1.66Z"/>
</svg>
